T: Noose In The Ghillies, The
M: 4/4
L: 1/8
K: Bmin
|: Bffd gefd | Bffd edcA | Bffd gefd | eaaf edcA :|
|: fBBc cdBc | fBBc edcA | fBBc cdBc | eaaf edcA :|
